static/icons/button.svg

<svg width="268" height="66" viewBox="0 0 268 66" fill="none" xmlns="http://www.w3.org/2000/svg">
<path d="M0.0929755 33.56C0.281554 31.4077 0.698013 29.283 1.33494 27.2239C3.39929 20.4382 6.43707 14.4046 11.4049 9.42557C14.0399 6.78046 17.7071 3.7723 21.156 2.38059C25.2092 0.7382 240.009 -0.454691 244.398 0.167688C260.241 2.42381 270.189 17.456 267.588 35.2889C265.515 49.4999 263.17 63.5207 248.652 65.6471C244.729 66.2362 31.758 66.0868 27.8862 65.2063C12.4875 61.2559 -1.26647 49.8543 0.0929755 33.56Z" fill="white"/>
<path d="M4.0902 33.4921C4.27315 31.6007 4.67718 29.7335 5.29509 27.924C7.29781 21.9609 10.2449 16.6586 15.0645 12.2831C17.6208 9.95858 21.1785 7.31505 24.5245 6.09203C28.4567 4.64872 236.844 3.60042 241.102 4.14736C256.473 6.13002 266.124 19.3401 263.6 35.0114C261.589 47.4999 259.314 59.8212 245.23 61.6899C241.423 62.2075 34.81 62.0763 31.0537 61.3025C16.1147 57.831 2.77133 47.8113 4.0902 33.4921Z" fill="url(#paint0_linear_70_518)"/>
<path d="M251.788 13.9007C251.406 15.0169 248.124 14.9064 244.473 13.6544C240.821 12.4023 238.176 10.4379 238.545 9.3595C238.915 8.28114 242.21 8.35372 245.861 9.60578C249.512 10.8578 252.171 12.7845 251.788 13.9007Z" fill="white"/>
<path d="M236.42 9.73019C236.387 10.2897 235.587 10.6812 234.642 10.632C233.696 10.5828 232.958 10.0546 232.978 9.533C232.998 9.01137 233.802 8.57871 234.757 8.63118C235.711 8.68366 236.45 9.18019 236.42 9.73019Z" fill="white"/>
<defs>
<linearGradient id="paint0_linear_70_518" x1="-2.00469" y1="10.9595" x2="48.5122" y2="153.608" gradientUnits="userSpaceOnUse">
<stop stop-color="#23307A"/>
<stop offset="1" stop-color="#F75B99"/>
</linearGradient>
</defs>
</svg>

<svg xmlns="http://www.w3.org/2000/svg" fill="none" viewBox="0 0 268 66"><path fill="#fff" d="M.093 33.56a30.433 30.433 0 0 1 1.242-6.336c2.064-6.786 5.102-12.82 10.07-17.798 2.635-2.646 6.302-5.654 9.751-7.045C25.209.738 240.009-.455 244.398.168c15.843 2.256 25.791 17.288 23.19 35.12-2.073 14.212-4.418 28.233-18.936 30.36-3.923.588-216.894.439-220.766-.442C12.488 61.256-1.266 49.854.093 33.56Z"/><path fill="url(#a)" d="M4.09 33.492a24.535 24.535 0 0 1 1.205-5.568c2.003-5.963 4.95-11.265 9.77-15.64 2.556-2.325 6.114-4.969 9.46-6.192C28.456 4.649 236.843 3.6 241.101 4.147 256.473 6.13 266.124 19.34 263.6 35.011c-2.011 12.489-4.286 24.81-18.37 26.679-3.807.518-210.42.386-214.176-.387C16.114 57.83 2.77 47.81 4.09 33.493Z"/><path fill="#fff" d="M251.788 13.9c-.382 1.117-3.664 1.006-7.315-.246-3.652-1.252-6.297-3.216-5.928-4.294.37-1.079 3.665-1.006 7.316.246s6.31 3.178 5.927 4.295ZM236.42 9.73c-.033.56-.833.951-1.778.902-.946-.05-1.684-.577-1.664-1.099.02-.522.824-.954 1.779-.902.954.053 1.693.55 1.663 1.1Z"/><defs><linearGradient id="a" x1="-2.005" x2="48.512" y1="10.96" y2="153.608" gradientUnits="userSpaceOnUse"><stop stop-color="#23307A"/><stop offset="1" stop-color="#F75B99"/></linearGradient></defs></svg>
